polaris-icons/icons/ProductCostIcon.svg

<svg xmlns="http://www.w3.org/2000/svg" viewBox="0 0 20 20"><path d="M8.57473 4.64885C9.28162 3.91477 10.2568 3.5 11.2759 3.5H13.25C15.0449 3.5 16.5 4.95507 16.5 6.75V8.25C16.5 8.66421 16.1642 9 15.75 9C15.3358 9 15 8.66421 15 8.25V6.75C15 5.7835 14.2165 5 13.25 5H11.2759C10.6645 5 10.0793 5.24886 9.65521 5.68931L5.4016 10.1065C4.92912 10.5972 4.93646 11.3758 5.41812 11.8575L8.31603 14.7554C8.70135 15.1407 9.32425 15.1466 9.71678 14.7686L10.1673 14.3348C10.4656 14.0474 10.9404 14.0564 11.2277 14.3548C11.5151 14.6531 11.5061 15.1279 11.2077 15.4152L10.7572 15.8491C9.77593 16.794 8.21868 16.7793 7.25537 15.816L4.35746 12.9181C3.29782 11.8585 3.28166 10.1455 4.32112 9.06605L8.57473 4.64885Z"/>
<path d="M14 7C14 7.55228 13.5523 8 13 8C12.4477 8 12 7.55228 12 7C12 6.44772 12.4477 6 13 6C13.5523 6 14 6.44772 14 7Z"/>
<path d="M13.25 10.8567C12.5218 11.1141 12 11.8086 12 12.625C12 13.6605 12.8395 14.5 13.875 14.5H14.625C14.8321 14.5 15 14.6679 15 14.875C15 15.0821 14.8321 15.25 14.625 15.25H12.75C12.3358 15.25 12 15.5858 12 16C12 16.4142 12.3358 16.75 12.75 16.75H13.25V17C13.25 17.4142 13.5858 17.75 14 17.75C14.4142 17.75 14.75 17.4142 14.75 17V16.7459C15.7273 16.6816 16.5 15.8685 16.5 14.875C16.5 13.8395 15.6605 13 14.625 13H13.875C13.6679 13 13.5 12.8321 13.5 12.625C13.5 12.4179 13.6679 12.25 13.875 12.25H15.75C16.1642 12.25 16.5 11.9142 16.5 11.5C16.5 11.0858 16.1642 10.75 15.75 10.75H14.75V10.5C14.75 10.0858 14.4142 9.75 14 9.75C13.5858 9.75 13.25 10.0858 13.25 10.5V10.8567Z"/>
</svg>

<svg xmlns="http://www.w3.org/2000/svg" viewBox="0 0 20 20"><path d="M8.575 4.649c.707-.734 1.682-1.149 2.7-1.149h1.975c1.795 0 3.25 1.455 3.25 3.25v1.5c0 .414-.336.75-.75.75s-.75-.336-.75-.75v-1.5c0-.966-.784-1.75-1.75-1.75h-1.974c-.611 0-1.197.249-1.62.69l-4.254 4.417c-.473.49-.466 1.269.016 1.75l2.898 2.898c.385.386 1.008.392 1.4.014l.451-.434c.299-.288.773-.279 1.06.02.288.298.28.773-.02 1.06l-.45.434c-.981.945-2.538.93-3.502-.033l-2.898-2.898c-1.06-1.06-1.075-2.772-.036-3.852l4.254-4.417Z"/><path d="M14 7c0 .552-.448 1-1 1s-1-.448-1-1 .448-1 1-1 1 .448 1 1Z"/><path d="M13.25 10.857c-.728.257-1.25.952-1.25 1.768 0 1.036.84 1.875 1.875 1.875h.75c.207 0 .375.168.375.375s-.168.375-.375.375h-1.875c-.414 0-.75.336-.75.75s.336.75.75.75h.5v.25c0 .414.336.75.75.75s.75-.336.75-.75v-.254c.977-.064 1.75-.877 1.75-1.871 0-1.036-.84-1.875-1.875-1.875h-.75c-.207 0-.375-.168-.375-.375s.168-.375.375-.375h1.875c.414 0 .75-.336.75-.75s-.336-.75-.75-.75h-1v-.25c0-.414-.336-.75-.75-.75s-.75.336-.75.75v.357Z"/></svg>
